img/icon-snowflake-2.svg

<svg xmlns="http://www.w3.org/2000/svg" width="77.25" height="77.25"><path d="M50.91 44.08c-2.13 0-3.82-.5-5.29-1.31l-4.23-4.24c1.17-1.04 2.31-2.17 3.3-3.48 1.67-1.16 3.62-1.89 6.22-1.89 4.76 0 7.34 2.43 9.99 5.46-2.65 3.03-5.23 5.46-9.99 5.46M38.62 60.9c-3.03-2.65-5.46-5.23-5.46-9.99 0-2.6.73-4.55 1.89-6.22 1.34-1.01 2.5-2.2 3.57-3.4 1.07 1.2 2.23 2.38 3.57 3.4 1.16 1.67 1.89 3.62 1.89 6.22 0 4.76-2.43 7.34-5.46 9.99M26.33 44.08c-4.76 0-7.34-2.43-9.99-5.46 2.65-3.03 5.23-5.46 9.99-5.46 2.6 0 4.55.73 6.22 1.88.95 1.28 2.06 2.38 3.2 3.41l-4.54 4.54c-1.37.68-2.94 1.09-4.88 1.09m6.83-17.75c0-4.76 2.43-7.34 5.46-9.99 3.03 2.64 5.46 5.23 5.46 9.99 0 1.94-.41 3.51-1.1 4.88l-4.45 4.46-4.06-4.06c-.82-1.46-1.31-3.15-1.31-5.28M75.5 44.08c-4.76 0-7.35-2.43-9.99-5.46 2.64-3.03 5.23-5.46 9.99-5.46.96 0 1.75-.78 1.75-1.75 0-.96-.79-1.75-1.75-1.75-6 0-9.45 3.09-12.3 6.29-2.84-3.2-6.3-6.29-12.29-6.29-.52 0-1.02.03-1.5.08l7.24-7.24 6.6 6.6c.35.34.79.52 1.24.52.45 0 .9-.18 1.24-.52.68-.68.68-1.79 0-2.47l-6.61-6.61 7.27-7.27c.69-.68.69-1.79 0-2.47a1.75 1.75 0 0 0-2.47 0l-7.27 7.27-6.61-6.6c-.68-.69-1.79-.69-2.47 0a1.75 1.75 0 0 0 0 2.47l6.6 6.6-6.61 6.61c.01-.1.02-.2.02-.3 0-5.99-3.09-9.45-6.29-12.29 3.2-2.85 6.29-6.3 6.29-12.3 0-.96-.79-1.74-1.75-1.74-.97 0-1.75.78-1.75 1.74 0 4.76-2.43 7.35-5.46 9.99-3.03-2.64-5.46-5.23-5.46-9.99 0-.96-.78-1.74-1.75-1.74-.96 0-1.75.78-1.75 1.74 0 6 3.09 9.45 6.29 12.3-3.2 2.84-6.29 6.3-6.29 12.29 0 .17.02.33.02.5l-6.8-6.8 6.6-6.61c.69-.68.69-1.79 0-2.47-.68-.69-1.79-.69-2.47 0l-6.6 6.6-7.27-7.27c-.69-.68-1.8-.68-2.48 0-.68.68-.68 1.79 0 2.48l7.27 7.27-6.6 6.6c-.69.68-.69 1.79 0 2.47.34.34.79.52 1.23.52.45 0 .9-.18 1.24-.52l6.6-6.6 7.22 7.21c-.42-.03-.85-.05-1.29-.05-5.99 0-9.45 3.09-12.29 6.29-2.85-3.2-6.3-6.29-12.29-6.29-.97 0-1.75.79-1.75 1.75 0 .97.78 1.75 1.75 1.75 4.75 0 7.34 2.43 9.98 5.46-2.64 3.03-5.23 5.46-9.98 5.46-.97 0-1.75.78-1.75 1.75 0 .96.78 1.75 1.75 1.75 5.99 0 9.44-3.09 12.29-6.29 2.84 3.2 6.3 6.29 12.29 6.29.1 0 .2-.01.3-.01l-6.23 6.22-6.6-6.6a1.75 1.75 0 0 0-2.47 0c-.69.68-.69 1.79 0 2.48l6.6 6.6-7.27 7.27a1.75 1.75 0 0 0 0 2.47c.34.35.79.52 1.24.52.44 0 .89-.17 1.23-.52l7.27-7.27 6.61 6.61a1.748 1.748 0 0 0 2.47 0c.69-.68.69-1.79 0-2.48l-6.6-6.6 6.86-6.86c-.05.48-.08.98-.08 1.5 0 5.99 3.09 9.45 6.29 12.29-3.2 2.85-6.29 6.3-6.29 12.29 0 .97.79 1.75 1.75 1.75.97 0 1.75-.78 1.75-1.75 0-4.75 2.43-7.34 5.46-9.98 3.03 2.64 5.46 5.23 5.46 9.98 0 .97.78 1.75 1.75 1.75.96 0 1.75-.78 1.75-1.75 0-5.99-3.09-9.44-6.29-12.29 3.2-2.84 6.29-6.3 6.29-12.29 0-.44-.02-.87-.05-1.29l6.65 6.65-6.61 6.6c-.68.69-.68 1.8 0 2.48a1.765 1.765 0 0 0 2.48 0l6.6-6.6 7.27 7.26c.34.35.79.52 1.24.52.45 0 .89-.17 1.23-.51.69-.69.69-1.8.01-2.48l-7.28-7.27 6.61-6.6c.68-.69.68-1.8 0-2.48-.68-.68-1.79-.68-2.48 0l-6.6 6.61-6.24-6.24c.17 0 .33.02.5.02 5.99 0 9.45-3.09 12.29-6.29 2.85 3.2 6.3 6.29 12.3 6.29.96 0 1.75-.79 1.75-1.75 0-.97-.79-1.75-1.75-1.75" fill="#f7f8fb"/></svg>

<svg xmlns="http://www.w3.org/2000/svg" width="77.25" height="77.25" viewBox="0 0 77.25 77.25">
	<style type="text/css">
		.st0{fill:#f7f8fb;}
	</style>
	<path class="st0" d="M50.91,44.08C48.78,44.08 47.09,43.58 45.62,42.77L41.39,38.53C42.56,37.49 43.7,36.36 44.69,35.05C46.36,33.89 48.31,33.16 50.91,33.16C55.67,33.16 58.25,35.59 60.9,38.62C58.25,41.65 55.67,44.08 50.91,44.08M38.62,60.9C35.59,58.25 33.16,55.67 33.16,50.91C33.16,48.31 33.89,46.36 35.05,44.69C36.39,43.68 37.55,42.49 38.62,41.29C39.69,42.49 40.85,43.67 42.19,44.69C43.35,46.36 44.08,48.31 44.08,50.91C44.08,55.67 41.65,58.25 38.62,60.9M26.33,44.08C21.57,44.08 18.99,41.65 16.34,38.62C18.99,35.59 21.57,33.16 26.33,33.16C28.93,33.16 30.88,33.89 32.55,35.04C33.5,36.32 34.61,37.42 35.75,38.45L31.21,42.99C29.84,43.67 28.27,44.08 26.33,44.08M33.16,26.33C33.16,21.57 35.59,18.99 38.62,16.34C41.65,18.98 44.08,21.57 44.08,26.33C44.08,28.27 43.67,29.84 42.98,31.21L38.53,35.67L34.47,31.61C33.65,30.15 33.16,28.46 33.16,26.33M75.5,44.08C70.74,44.08 68.15,41.65 65.51,38.62C68.15,35.59 70.74,33.16 75.5,33.16C76.46,33.16 77.25,32.38 77.25,31.41C77.25,30.45 76.46,29.66 75.5,29.66C69.5,29.66 66.05,32.75 63.2,35.95C60.36,32.75 56.9,29.66 50.91,29.66C50.39,29.66 49.89,29.69 49.41,29.74L56.65,22.5L63.25,29.1C63.6,29.44 64.04,29.62 64.49,29.62C64.94,29.62 65.39,29.44 65.73,29.1C66.41,28.42 66.41,27.31 65.73,26.63L59.12,20.02L66.39,12.75C67.08,12.07 67.08,10.96 66.39,10.28C65.71,9.6 64.6,9.6 63.92,10.28L56.65,17.55L50.04,10.95C49.36,10.26 48.25,10.26 47.57,10.95C46.89,11.63 46.89,12.74 47.57,13.42L54.17,20.02L47.56,26.63C47.57,26.53 47.58,26.43 47.58,26.33C47.58,20.34 44.49,16.88 41.29,14.04C44.49,11.19 47.58,7.74 47.58,1.74C47.58,0.78 46.79,0 45.83,0C44.86,0 44.08,0.78 44.08,1.74C44.08,6.5 41.65,9.09 38.62,11.73C35.59,9.09 33.16,6.5 33.16,1.74C33.16,0.78 32.38,0 31.41,0C30.45,0 29.66,0.78 29.66,1.74C29.66,7.74 32.75,11.19 35.95,14.04C32.75,16.88 29.66,20.34 29.66,26.33C29.66,26.5 29.68,26.66 29.68,26.83L22.88,20.03L29.48,13.42C30.17,12.74 30.17,11.63 29.48,10.95C28.8,10.26 27.69,10.26 27.01,10.95L20.41,17.55L13.14,10.28C12.45,9.6 11.34,9.6 10.66,10.28C9.98,10.96 9.98,12.07 10.66,12.76L17.93,20.03L11.33,26.63C10.64,27.31 10.64,28.42 11.33,29.1C11.67,29.44 12.12,29.62 12.56,29.62C13.01,29.62 13.46,29.44 13.8,29.1L20.4,22.5L27.62,29.71C27.2,29.68 26.77,29.66 26.33,29.66C20.34,29.66 16.88,32.75 14.04,35.95C11.19,32.75 7.74,29.66 1.75,29.66C0.78,29.66 0,30.45 0,31.41C0,32.38 0.78,33.16 1.75,33.16C6.5,33.16 9.09,35.59 11.73,38.62C9.09,41.65 6.5,44.08 1.75,44.08C0.78,44.08 0,44.86 0,45.83C0,46.79 0.78,47.58 1.75,47.58C7.74,47.58 11.19,44.49 14.04,41.29C16.88,44.49 20.34,47.58 26.33,47.58C26.43,47.58 26.53,47.57 26.63,47.57L20.4,53.79L13.8,47.19C13.12,46.51 12.01,46.51 11.33,47.19C10.64,47.87 10.64,48.98 11.33,49.67L17.93,56.27L10.66,63.54C9.98,64.22 9.98,65.33 10.66,66.01C11,66.36 11.45,66.53 11.9,66.53C12.34,66.53 12.79,66.36 13.13,66.01L20.4,58.74L27.01,65.35C27.35,65.69 27.8,65.86 28.25,65.86C28.69,65.86 29.14,65.69 29.48,65.35C30.17,64.67 30.17,63.56 29.48,62.87L22.88,56.27L29.74,49.41C29.69,49.89 29.66,50.39 29.66,50.91C29.66,56.9 32.75,60.36 35.95,63.2C32.75,66.05 29.66,69.5 29.66,75.49C29.66,76.46 30.45,77.24 31.41,77.24C32.38,77.24 33.16,76.46 33.16,75.49C33.16,70.74 35.59,68.15 38.62,65.51C41.65,68.15 44.08,70.74 44.08,75.49C44.08,76.46 44.86,77.24 45.83,77.24C46.79,77.24 47.58,76.46 47.58,75.49C47.58,69.5 44.49,66.05 41.29,63.2C44.49,60.36 47.58,56.9 47.58,50.91C47.58,50.47 47.56,50.04 47.53,49.62L54.18,56.27L47.57,62.87C46.89,63.56 46.89,64.67 47.57,65.35C47.91,65.69 48.36,65.86 48.81,65.86C49.26,65.86 49.7,65.69 50.05,65.35L56.65,58.75L63.92,66.01C64.26,66.36 64.71,66.53 65.16,66.53C65.61,66.53 66.05,66.36 66.39,66.02C67.08,65.33 67.08,64.22 66.4,63.54L59.12,56.27L65.73,49.67C66.41,48.98 66.41,47.87 65.73,47.19C65.05,46.51 63.94,46.51 63.25,47.19L56.65,53.8L50.41,47.56C50.58,47.56 50.74,47.58 50.91,47.58C56.9,47.58 60.36,44.49 63.2,41.29C66.05,44.49 69.5,47.58 75.5,47.58C76.46,47.58 77.25,46.79 77.25,45.83C77.25,44.86 76.46,44.08 75.5,44.08"></path>
</svg>
